X: 8421
T: Coxwell House
R: jig
M: 6/8
K: Bminor
|:fBf dcB|ABB B2e|fef afd|eff f2g|
a2a fed|efe cBA|BcB edB|ABB B2e:|
|:f3 e3|A2B BAB|dee ede|fed e2f|
g3 f3|ede dBA|BdB edB|ABB B2e:|
|:fef Bfe|fef gfe|cBc AcB|Pc3 edc|
Pd3 Pe3|Pf3 Pc3|BdB edB|ABB B2e:|
|:Pf3 fed|A2 B2 d2|Pe3 ede|fed e2f|
Pd3 Pc3|d2 c2 A2|BdB edB|ABB B2e:|

